X:1
T:Title
%%score { ( 1 4 ) | ( 2 3 ) }
L:1/8
Q:1/4=75
M:6/8
K:G
V:1 treble nm="Grand Piano"
V:4 treble 
V:2 bass 
V:3 bass 
V:1
 .[D,B,D]2 [B,G] [CG]2 [CF] | FAE [CE]2 [B,D] | z EF G2 B | [^CA]2 [CE] [A,=CF]3 | %4
w: C.~H.~Forrest * * *||||
 .[G,B,D]2 [B,G] [CG]2 [CF] | .[G,DG]2 [DB] [EB]2 [EA] | [Ec]2 [Fe] d-[Dd]G | GFA [G,B,G]3 | %8
w: ||||
 [B,GB][Fc][B,GB] [CFA]2 [CFA] | [FA][GB][FA] G2 G | GAG F2 B | ^cBc ^d2- [A,Ed] | %12
w: ||||
 [Ee]2 [=Fd] [Ec]2 [DEB] | [DB]AB [Cc]2 [CE] | [CE]2 [CF] GAB | .B3 z3 |] %16
w: ||||
V:2
 z B[G,,D,] [A,,D,]2 [A,,D,] | .[D,C]3 z3 | [G,B,]2 [G,B,D] [E,B,E]2 [E,G,D] | %3
 [A,,A,]2 [A,,A,] D,3 | z[K:treble] B[K:bass][G,,D,] [A,,D,]2 [A,,D,] | %5
 z[K:treble] d[K:bass][B,,^G,] [C,G,]2 [C,A,] | [C,A,]2 [A,,C] [B,,B,]2 [E,G,B,] | %7
 [D,A,C]2 [D,F,C] G,,3 | z A,E, E,2 E, | [^D,B,]2 [D,B,] [E,B,E]2 [E,B,E] | %10
 [E,B,E]2 [E,B,E] [F,B,^D]2 [F,B,D] | ._B,3 z3 | [C,G,]2 [C,^G,] [C,A,]2 C, | %13
 z C[E,^G,D] [A,,A,]2 [A,,A,] | [A,,A,]2 [A,,A,] [G,C][F,C][D,G,D] | [D,D]2 [D,F,C] [G,,G,]3 |] %16
V:3
 .G,,3 z3 | z E,[D,F,C] [G,,G,]2 [G,,G,] | x6 | x6 | .G,,3[K:treble][K:bass] z3 | %5
 .B,,3[K:treble][K:bass] z3 | x6 | x6 | .E,3 z3 | x6 | x6 | [F,E]-[F,^G,E][F,_B,E] .[B,,=B,]3 | %12
 x6 | .C,3 z3 | z3 .D,3 | x6 |] %16
V:4
 x6 | x6 | .D3 z3 | x6 | x6 | x6 | z3 .G3 | x6 | x6 | x6 | x6 | z3 .^D3 | x6 | .E3 z3 | x6 | %15
 z E,A [B,G]3 |] %16

